!!!COM: Bach, Johann Sebastian
!!!CDT: 1685/3//-1750/7/28/
!!!OTL@@DE: Es ist das Heil uns kommen her
!!!AGN: 4-Part Chorale
!!!SCT: BH 290
!!!SCT: BWV 9
**harm	**root	**kern	**kern	**kern	**kern
!	!	!bass	!tenor	!alto	!soprno
*	*Iorgan	*Iorgan	*Iorgan	*Iorgan	*Iorgan
*M4/4	*M4/4	*M4/4	*M4/4	*M4/4	*M4/4
*met(c)	*met(c)	*met(c)	*met(c)	*met(c)	*met(c)
*MM60	*MM60	*MM60	*MM60	*MM60	*MM60
*k[f#c#g#d#a#e#b#]	*k[f#c#g#d#a#e#b#]	*k[f#c#g#d#a#e#b#]	*k[f#c#g#d#a#e#b#]	*k[f#c#g#d#a#e#b#]	*k[f#c#g#d#a#e#b#]
*C#:	*C#:	*C#:	*C#:	*C#:	*C#:
*>[A,A,B]	*>[A,A,B]	*>[A,A,B]	*>[A,A,B]	*>[A,A,B]	*>[A,A,B]
*>A	*>A	*>A	*>A	*>A	*>A
I	4EE	4C#	4c#	4e#	4g#
=1	=1	=1	=1	=1	=1
I	4EE	4C#	4G#	8d#	4g#
.	.	.	.	8e#	.
V7b	4BB	4BB#	4d#	4f#	4g#
I	8EE	4C#	4c#	8e#	8g#
IVc	8AA	.	.	8f#	8a#
V7b/IV	4EE	4EE#	4c#	4g#	4b
=2	=2	=2	=2	=2	=2
IV	8AA	4FF#	8c#	8g#	4a#
iib	8FF#	.	8d#	8f#	.
-IIIb	8GG	8GG#	4e	8B	4g#
viio7/-VII	8CC#	8AA#	.	8c#	.
-VII;	4DD;	4BB;	4B;	4d#;	4f#;
Vb	4BB	4BB#	4G#	4d#	8g#
.	.	.	.	.	8f#
=3	=3	=3	=3	=3	=3
I	4EE	4.C#	8G#	4c#	8e#
.	.	.	8F#	.	8d#
I	4EE	.	4E#	4G#	8c#
.	.	8BB#	.	.	8d#
vi	4CC#	8AA#	4A#	4c#	4e#
.	.	8BB#	.	.	.
V7d/V	4FF#	8C#	4D#	4A#	4f##
.	.	8D#	.	.	.
=4	=4	=4	=4	=4	=4
Vb	8BB	8BB#	8D#	4.d#	4g#
V	8BB	8GG#	8G#	.	.
V/V	4FF#	4D#	4F##	.	4a#
.	.	.	.	8c#	.
V;	4BB;	4GG#;	4D#;	4B#;	4g#;
=:|!	=:|!	=:|!	=:|!	=:|!	=:|!
*>B	*>B	*>B	*>B	*>B	*>B
I	4EE	8C#	4E#	8c#	4g#
.	.	8BB#	.	8d#	.
=5	=5	=5	=5	=5	=5
vi	4CC#	4AA#	4A#	8e#	4cc#
.	.	.	.	8f##	.
V	4BB	4GG#	8B#	4g#	4b#
.	.	.	8c#	.	.
V/V	4FF#	8D#	4d#	8f##	4a#
.	.	8E#	.	8e#	.
V7d	4BB	8F#	4G#	4d#	4b#
.	.	8D#	.	.	.
!!linebreak: 2
=6	=6	=6	=6	=6	=6
Ib	8EE	8E#	4G#	8g#	8cc#
I7	8EE	8C#	.	8e#	8b#
V/V	4FF#	4D#	8d#	4f##	4a#
.	.	.	8c#	.	.
V;	4BB;	4GG#;	4B#;	4d#;	4g#;
I	4EE	8C#	4c#	8e#	4g#
.	.	8D#	.	8f#	.
=7	=7	=7	=7	=7	=7
Ib	8EE	8E#	8G#	8g#	4cc#
IV	8AA	8F#	8A#	8f#	.
v	4BB	4G#	4B	8e#	4g#
.	.	.	.	8d#	.
V7d/ii	8CC#	8G#	8A#	8c##	4a#
viio7c	8DD#	8F#	8B#	8d#	.
viib/ii	8EE#	8E#	8c##	8e#	8e#
ii	8FF#	8D#	8d#	8A#	8f#
=8	=8	=8	=8	=8	=8
V7b/ii	4CC#	4C##	8e#	8A#	4g#
.	.	.	8A#	8e#	.
ii	4FF#	4D#	4A#	8e#	4f#
.	.	.	.	8d#	.
VI;	4CC#;	4AA#;	4A#;	8d#	4e#;
.	.	.	.	8c##;	.
VI	4CC#	8A#	4A#	4c##	4e#
.	.	8G#	.	.	.
=9	=9	=9	=9	=9	=9
iib	8FF#	8F#	8A#	8d#	8d#
Ib	8EE	8E#	8G#	8c#	8e#
viiob	4DD#	4D#	4F#	8B#	4f#
.	.	.	.	8A#	.
Ic	8EE	8E#	4c#	8G#	4e#
IV7	8AA	8F#	.	8A#	.
V	4BB	4G#	8G#	4B#	4d#
.	.	.	8F#	.	.
=10	=10	=10	=10	=10	=10
viioD7d/-VII	4CC#	8G#	4E	4c#	4A#
.	.	8F##	.	.	.
V	4BB	4G#	8D#	4G#	4B#
.	.	.	8F#	.	.
I;	4EE;	4C#;	4E#;	4G#;	4c#;
==	==	==	==	==	==
*-	*-	*-	*-	*-	*-
!!chor2scor: -l 2 -s 0.6 -o %b.pmx
!!!YEC: Copyright 1994, David Huron
!!!YEC: Changes/Additions 2001 by Craig Stuart Sapp
!!!YEN: United States of America
!!!SMA: 371 Bach Chorales, edited by Ludwig Erk, C.F. Peters
!!!PDT: 1850, 1865
!!!ONB: Harmony and Root analysis done manually by Craig Sapp
